img/footer_logo.svg

<svg width="171" height="13" viewBox="0 0 171 13" fill="none" xmlns="http://www.w3.org/2000/svg">
<path d="M0.52 12C0.413333 12 0.317333 11.9627 0.232 11.888C0.157333 11.8027 0.12 11.7067 0.12 11.6V1.2C0.12 1.08267 0.157333 0.986666 0.232 0.912C0.317333 0.837333 0.413333 0.799999 0.52 0.799999H2.216C2.48267 0.799999 2.664 0.901333 2.76 1.104L6.664 7.248V1.2C6.664 1.08267 6.70133 0.986666 6.776 0.912C6.86133 0.837333 6.95733 0.799999 7.064 0.799999H8.984C9.10133 0.799999 9.19733 0.837333 9.272 0.912C9.34667 0.986666 9.384 1.08267 9.384 1.2V11.584C9.384 11.7013 9.34667 11.8027 9.272 11.888C9.19733 11.9627 9.10133 12 8.984 12H7.272C7.03733 12 6.86133 11.8987 6.744 11.696L2.84 5.776V11.6C2.84 11.7067 2.80267 11.8027 2.728 11.888C2.65333 11.9627 2.55733 12 2.44 12H0.52ZM10.98 12C10.8947 12 10.8147 11.968 10.74 11.904C10.676 11.8293 10.644 11.7493 10.644 11.664C10.644 11.6 10.6493 11.552 10.66 11.52L14.42 1.248C14.452 1.12 14.5213 1.01333 14.628 0.927999C14.7347 0.842666 14.8733 0.799999 15.044 0.799999H17.412C17.5827 0.799999 17.7213 0.842666 17.828 0.927999C17.9347 1.01333 18.004 1.12 18.036 1.248L21.78 11.52L21.812 11.664C21.812 11.7493 21.7747 11.8293 21.7 11.904C21.636 11.968 21.556 12 21.46 12H19.492C19.236 12 19.0653 11.888 18.98 11.664L18.356 10.032H14.084L13.476 11.664C13.3907 11.888 13.2147 12 12.948 12H10.98ZM17.716 7.728L16.228 3.504L14.74 7.728H17.716ZM23.4731 12C23.3665 12 23.2705 11.9627 23.1851 11.888C23.1105 11.8027 23.0731 11.7067 23.0731 11.6V1.2C23.0731 1.08267 23.1105 0.986666 23.1851 0.912C23.2705 0.837333 23.3665 0.799999 23.4731 0.799999H25.2011C25.4571 0.799999 25.6438 0.917333 25.7611 1.152L28.5771 6.192L31.3931 1.152C31.5105 0.917333 31.6971 0.799999 31.9531 0.799999H33.6651C33.7825 0.799999 33.8785 0.837333 33.9531 0.912C34.0385 0.986666 34.0811 1.08267 34.0811 1.2V11.6C34.0811 11.7173 34.0385 11.8133 33.9531 11.888C33.8785 11.9627 33.7825 12 33.6651 12H31.7611C31.6438 12 31.5425 11.9627 31.4571 11.888C31.3825 11.8133 31.3451 11.7173 31.3451 11.6V5.6L29.5531 8.944C29.4145 9.18933 29.2278 9.312 28.9931 9.312H28.1611C28.0225 9.312 27.9105 9.28 27.8251 9.216C27.7398 9.152 27.6651 9.06133 27.6011 8.944L25.7931 5.6V11.6C25.7931 11.7067 25.7558 11.8027 25.6811 11.888C25.6065 11.9627 25.5105 12 25.3931 12H23.4731ZM35.6831 12C35.5978 12 35.5178 11.968 35.4431 11.904C35.3791 11.8293 35.3471 11.7493 35.3471 11.664C35.3471 11.6 35.3525 11.552 35.3631 11.52L39.1231 1.248C39.1551 1.12 39.2245 1.01333 39.3311 0.927999C39.4378 0.842666 39.5765 0.799999 39.7471 0.799999H42.1151C42.2858 0.799999 42.4245 0.842666 42.5311 0.927999C42.6378 1.01333 42.7071 1.12 42.7391 1.248L46.4831 11.52L46.5151 11.664C46.5151 11.7493 46.4778 11.8293 46.4031 11.904C46.3391 11.968 46.2591 12 46.1631 12H44.1951C43.9391 12 43.7685 11.888 43.6831 11.664L43.0591 10.032H38.7871L38.1791 11.664C38.0938 11.888 37.9178 12 37.6511 12H35.6831ZM42.4191 7.728L40.9311 3.504L39.4431 7.728H42.4191ZM48.1763 12C48.0696 12 47.9736 11.9627 47.8883 11.888C47.8136 11.8027 47.7763 11.7067 47.7763 11.6V1.2C47.7763 1.08267 47.8136 0.986666 47.8883 0.912C47.9736 0.837333 48.0696 0.799999 48.1763 0.799999H49.8723C50.1389 0.799999 50.3203 0.901333 50.4163 1.104L54.3203 7.248V1.2C54.3203 1.08267 54.3576 0.986666 54.4323 0.912C54.5176 0.837333 54.6136 0.799999 54.7203 0.799999H56.6403C56.7576 0.799999 56.8536 0.837333 56.9283 0.912C57.0029 0.986666 57.0403 1.08267 57.0403 1.2V11.584C57.0403 11.7013 57.0029 11.8027 56.9283 11.888C56.8536 11.9627 56.7576 12 56.6403 12H54.9283C54.6936 12 54.5176 11.8987 54.4003 11.696L50.4963 5.776V11.6C50.4963 11.7067 50.4589 11.8027 50.3843 11.888C50.3096 11.9627 50.2136 12 50.0963 12H48.1763ZM63.9003 12.16C62.3643 12.16 61.1643 11.7867 60.3003 11.04C59.4363 10.2827 58.9776 9.21067 58.9243 7.824C58.9136 7.51467 58.9083 7.024 58.9083 6.352C58.9083 5.68 58.9136 5.18933 58.9243 4.88C58.9776 3.52533 59.4416 2.48 60.3163 1.744C61.2016 1.008 62.3963 0.639999 63.9003 0.639999C64.9136 0.639999 65.7936 0.805333 66.5403 1.136C67.2976 1.46667 67.8736 1.888 68.2683 2.4C68.6736 2.912 68.8869 3.44 68.9083 3.984C68.9083 4.08 68.8709 4.16 68.7963 4.224C68.7323 4.288 68.6523 4.32 68.5563 4.32H66.2203C66.1136 4.32 66.0283 4.304 65.9643 4.272C65.9003 4.24 65.8469 4.18133 65.8043 4.096C65.6656 3.78667 65.4469 3.52 65.1483 3.296C64.8496 3.06133 64.4336 2.944 63.9003 2.944C62.6309 2.944 61.9643 3.616 61.9003 4.96C61.8896 5.25867 61.8843 5.72267 61.8843 6.352C61.8843 6.97067 61.8896 7.43467 61.9003 7.744C61.9643 9.152 62.6469 9.856 63.9483 9.856C64.5776 9.856 65.0789 9.696 65.4523 9.376C65.8363 9.04533 66.0283 8.544 66.0283 7.872V7.568H64.5243C64.4069 7.568 64.3109 7.53067 64.2363 7.456C64.1616 7.37067 64.1243 7.26933 64.1243 7.152V5.968C64.1243 5.85067 64.1616 5.75467 64.2363 5.68C64.3109 5.59467 64.4069 5.552 64.5243 5.552H68.5563C68.6736 5.552 68.7696 5.59467 68.8443 5.68C68.9189 5.75467 68.9563 5.85067 68.9563 5.968V7.792C68.9563 8.69867 68.7483 9.48267 68.3323 10.144C67.9163 10.7947 67.3243 11.296 66.5563 11.648C65.7989 11.9893 64.9136 12.16 63.9003 12.16ZM69.9019 12C69.8165 12 69.7365 11.968 69.6619 11.904C69.5979 11.8293 69.5659 11.7493 69.5659 11.664C69.5659 11.6 69.5712 11.552 69.5819 11.52L73.3419 1.248C73.3739 1.12 73.4432 1.01333 73.5499 0.927999C73.6565 0.842666 73.7952 0.799999 73.9659 0.799999H76.3339C76.5045 0.799999 76.6432 0.842666 76.7499 0.927999C76.8565 1.01333 76.9259 1.12 76.9579 1.248L80.7019 11.52L80.7339 11.664C80.7339 11.7493 80.6965 11.8293 80.6219 11.904C80.5579 11.968 80.4779 12 80.3819 12H78.4139C78.1579 12 77.9872 11.888 77.9019 11.664L77.2779 10.032H73.0059L72.3979 11.664C72.3125 11.888 72.1365 12 71.8699 12H69.9019ZM76.6379 7.728L75.1499 3.504L73.6619 7.728H76.6379ZM82.395 12C82.2883 12 82.1923 11.9627 82.107 11.888C82.0323 11.8027 81.995 11.7067 81.995 11.6V1.2C81.995 1.08267 82.0323 0.986666 82.107 0.912C82.1923 0.837333 82.2883 0.799999 82.395 0.799999H84.091C84.3577 0.799999 84.539 0.901333 84.635 1.104L88.539 7.248V1.2C88.539 1.08267 88.5763 0.986666 88.651 0.912C88.7363 0.837333 88.8323 0.799999 88.939 0.799999H90.859C90.9763 0.799999 91.0723 0.837333 91.147 0.912C91.2217 0.986666 91.259 1.08267 91.259 1.2V11.584C91.259 11.7013 91.2217 11.8027 91.147 11.888C91.0723 11.9627 90.9763 12 90.859 12H89.147C88.9123 12 88.7363 11.8987 88.619 11.696L84.715 5.776V11.6C84.715 11.7067 84.6777 11.8027 84.603 11.888C84.5283 11.9627 84.4323 12 84.315 12H82.395ZM93.895 12C93.7883 12 93.6923 11.9627 93.607 11.888C93.5323 11.8027 93.495 11.7067 93.495 11.6V1.2C93.495 1.08267 93.5323 0.986666 93.607 0.912C93.6923 0.837333 93.7883 0.799999 93.895 0.799999H96.007C96.1243 0.799999 96.2203 0.837333 96.295 0.912C96.3697 0.986666 96.407 1.08267 96.407 1.2V9.584H101.255C101.372 9.584 101.468 9.62667 101.543 9.712C101.618 9.78667 101.655 9.88267 101.655 10V11.6C101.655 11.7067 101.618 11.8027 101.543 11.888C101.468 11.9627 101.372 12 101.255 12H93.895ZM103.442 12C103.335 12 103.239 11.9627 103.154 11.888C103.079 11.8027 103.042 11.7067 103.042 11.6V1.2C103.042 1.08267 103.079 0.986666 103.154 0.912C103.239 0.837333 103.335 0.799999 103.442 0.799999H105.586C105.703 0.799999 105.799 0.837333 105.874 0.912C105.959 0.986666 106.002 1.08267 106.002 1.2V11.6C106.002 11.7173 105.959 11.8133 105.874 11.888C105.799 11.9627 105.703 12 105.586 12H103.442ZM108.629 12C108.523 12 108.427 11.9627 108.341 11.888C108.267 11.8027 108.229 11.7067 108.229 11.6V1.2C108.229 1.08267 108.267 0.986666 108.341 0.912C108.427 0.837333 108.523 0.799999 108.629 0.799999H110.645C110.763 0.799999 110.859 0.837333 110.933 0.912C111.008 0.986666 111.045 1.08267 111.045 1.2V4.752L114.005 1.104C114.133 0.901333 114.341 0.799999 114.629 0.799999H116.933C117.029 0.799999 117.109 0.837333 117.173 0.912C117.237 0.976 117.269 1.05067 117.269 1.136C117.269 1.21067 117.253 1.27467 117.221 1.328L113.381 6.16L117.509 11.472C117.552 11.5147 117.573 11.5787 117.573 11.664C117.573 11.7493 117.541 11.8293 117.477 11.904C117.413 11.968 117.333 12 117.237 12H114.853C114.597 12 114.384 11.8933 114.213 11.68L111.045 7.728V11.6C111.045 11.7173 111.008 11.8133 110.933 11.888C110.859 11.9627 110.763 12 110.645 12H108.629ZM119.239 12C119.132 12 119.036 11.9627 118.951 11.888C118.876 11.8027 118.839 11.7067 118.839 11.6V1.2C118.839 1.08267 118.876 0.986666 118.951 0.912C119.036 0.837333 119.132 0.799999 119.239 0.799999H121.351C121.468 0.799999 121.564 0.837333 121.639 0.912C121.713 0.986666 121.751 1.08267 121.751 1.2V9.584H126.599C126.716 9.584 126.812 9.62667 126.887 9.712C126.961 9.78667 126.999 9.88267 126.999 10V11.6C126.999 11.7067 126.961 11.8027 126.887 11.888C126.812 11.9627 126.716 12 126.599 12H119.239ZM127.746 12C127.66 12 127.58 11.968 127.506 11.904C127.442 11.8293 127.41 11.7493 127.41 11.664C127.41 11.6 127.415 11.552 127.426 11.52L131.186 1.248C131.218 1.12 131.287 1.01333 131.394 0.927999C131.5 0.842666 131.639 0.799999 131.81 0.799999H134.178C134.348 0.799999 134.487 0.842666 134.594 0.927999C134.7 1.01333 134.77 1.12 134.802 1.248L138.546 11.52L138.578 11.664C138.578 11.7493 138.54 11.8293 138.466 11.904C138.402 11.968 138.322 12 138.226 12H136.258C136.002 12 135.831 11.888 135.746 11.664L135.122 10.032H130.85L130.242 11.664C130.156 11.888 129.98 12 129.714 12H127.746ZM134.482 7.728L132.994 3.504L131.506 7.728H134.482ZM140.239 12C140.132 12 140.036 11.9627 139.951 11.888C139.876 11.8027 139.839 11.7067 139.839 11.6V1.2C139.839 1.08267 139.876 0.986666 139.951 0.912C140.036 0.837333 140.132 0.799999 140.239 0.799999H144.591C145.988 0.799999 147.076 1.12 147.855 1.76C148.644 2.38933 149.039 3.28533 149.039 4.448C149.039 5.19467 148.863 5.82933 148.511 6.352C148.159 6.87467 147.673 7.27467 147.055 7.552L149.247 11.488C149.279 11.552 149.295 11.6107 149.295 11.664C149.295 11.7493 149.257 11.8293 149.183 11.904C149.119 11.968 149.044 12 148.959 12H146.831C146.521 12 146.303 11.856 146.175 11.568L144.351 8.048H142.719V11.6C142.719 11.7173 142.676 11.8133 142.591 11.888C142.516 11.9627 142.42 12 142.303 12H140.239ZM144.559 5.776C145.049 5.776 145.423 5.65867 145.679 5.424C145.935 5.17867 146.063 4.84267 146.063 4.416C146.063 3.98933 145.935 3.65333 145.679 3.408C145.433 3.152 145.06 3.024 144.559 3.024H142.719V5.776H144.559ZM150.853 12C150.736 12 150.635 11.9627 150.549 11.888C150.475 11.8133 150.437 11.7173 150.437 11.6V10.464C150.437 10.144 150.571 9.88267 150.837 9.68L152.501 8.048C153.472 7.30133 154.208 6.72 154.709 6.304C155.211 5.888 155.589 5.50933 155.845 5.168C156.101 4.82667 156.229 4.50133 156.229 4.192C156.229 3.34933 155.813 2.928 154.981 2.928C154.544 2.928 154.208 3.06133 153.973 3.328C153.739 3.584 153.584 3.90933 153.509 4.304C153.445 4.54933 153.264 4.672 152.965 4.672H150.965C150.869 4.672 150.789 4.64 150.725 4.576C150.661 4.512 150.629 4.432 150.629 4.336C150.651 3.65333 150.837 3.02933 151.189 2.464C151.552 1.888 152.059 1.43467 152.709 1.104C153.371 0.762666 154.128 0.591999 154.981 0.591999C155.877 0.591999 156.645 0.735999 157.285 1.024C157.925 1.312 158.411 1.71733 158.741 2.24C159.072 2.76267 159.237 3.37067 159.237 4.064C159.237 4.81067 159.003 5.49333 158.533 6.112C158.075 6.72 157.371 7.38133 156.421 8.096L154.949 9.584H159.061C159.179 9.584 159.275 9.62133 159.349 9.696C159.435 9.77067 159.477 9.86667 159.477 9.984V11.6C159.477 11.7173 159.435 11.8133 159.349 11.888C159.275 11.9627 159.179 12 159.061 12H150.853ZM166.333 12C166.227 12 166.131 11.9627 166.045 11.888C165.971 11.8027 165.933 11.7067 165.933 11.6V9.792H160.957C160.84 9.792 160.744 9.75467 160.669 9.68C160.595 9.60533 160.557 9.50933 160.557 9.392V7.872C160.557 7.712 160.616 7.54667 160.733 7.376L165.389 1.072C165.539 0.890666 165.736 0.799999 165.981 0.799999H168.317C168.435 0.799999 168.531 0.837333 168.605 0.912C168.68 0.986666 168.717 1.08267 168.717 1.2V7.408H170.125C170.253 7.408 170.355 7.45067 170.429 7.536C170.504 7.61067 170.541 7.70133 170.541 7.808V9.392C170.541 9.50933 170.504 9.60533 170.429 9.68C170.355 9.75467 170.259 9.792 170.141 9.792H168.717V11.6C168.717 11.7067 168.68 11.8027 168.605 11.888C168.531 11.9627 168.435 12 168.317 12H166.333ZM165.997 7.52V3.744L163.309 7.52H165.997Z" fill="white"/>
</svg>

<svg xmlns="http://www.w3.org/2000/svg" width="171" height="13" fill="none"><path fill="#fff" d="M.52 12a.426.426 0 0 1-.288-.112.426.426 0 0 1-.112-.288V1.2A.39.39 0 0 1 .232.912.426.426 0 0 1 .52.8h1.696c.267 0 .448.101.544.304l3.904 6.144V1.2a.39.39 0 0 1 .112-.288A.426.426 0 0 1 7.064.8h1.92a.39.39 0 0 1 .288.112.39.39 0 0 1 .112.288v10.384a.446.446 0 0 1-.112.304.39.39 0 0 1-.288.112H7.272a.572.572 0 0 1-.528-.304L2.84 5.776V11.6a.426.426 0 0 1-.112.288.39.39 0 0 1-.288.112H.52Zm10.46 0a.363.363 0 0 1-.24-.096.363.363 0 0 1-.096-.24c0-.064.005-.112.016-.144l3.76-10.272a.581.581 0 0 1 .208-.32.646.646 0 0 1 .416-.128h2.368c.17 0 .31.043.416.128a.581.581 0 0 1 .208.32L21.78 11.52l.032.144a.336.336 0 0 1-.112.24.326.326 0 0 1-.24.096h-1.968c-.256 0-.427-.112-.512-.336l-.624-1.632h-4.272l-.608 1.632c-.085.224-.261.336-.528.336H10.98Zm6.736-4.272-1.488-4.224-1.488 4.224h2.976ZM23.473 12a.426.426 0 0 1-.288-.112.426.426 0 0 1-.112-.288V1.2a.39.39 0 0 1 .112-.288.426.426 0 0 1 .288-.112h1.728c.256 0 .443.117.56.352l2.816 5.04 2.816-5.04a.586.586 0 0 1 .56-.352h1.712a.39.39 0 0 1 .288.112c.085.075.128.17.128.288v10.4a.365.365 0 0 1-.128.288.39.39 0 0 1-.288.112h-1.904a.446.446 0 0 1-.304-.112.39.39 0 0 1-.112-.288v-6l-1.792 3.344c-.139.245-.325.368-.56.368h-.832a.546.546 0 0 1-.336-.096.829.829 0 0 1-.224-.272L25.793 5.6v6a.426.426 0 0 1-.112.288.39.39 0 0 1-.288.112h-1.92Zm12.21 0a.363.363 0 0 1-.24-.096.363.363 0 0 1-.096-.24c0-.064.005-.112.016-.144l3.76-10.272a.582.582 0 0 1 .208-.32.646.646 0 0 1 .416-.128h2.368c.17 0 .31.043.416.128a.581.581 0 0 1 .208.32l3.744 10.272.032.144a.336.336 0 0 1-.112.24.326.326 0 0 1-.24.096h-1.968c-.256 0-.426-.112-.512-.336l-.624-1.632h-4.272l-.608 1.632c-.085.224-.261.336-.528.336h-1.968Zm6.736-4.272-1.488-4.224-1.488 4.224h2.976ZM48.176 12a.426.426 0 0 1-.288-.112.426.426 0 0 1-.112-.288V1.2a.39.39 0 0 1 .112-.288.426.426 0 0 1 .288-.112h1.696c.267 0 .448.101.544.304l3.904 6.144V1.2a.39.39 0 0 1 .112-.288A.426.426 0 0 1 54.72.8h1.92a.39.39 0 0 1 .288.112.39.39 0 0 1 .112.288v10.384a.447.447 0 0 1-.112.304.39.39 0 0 1-.288.112h-1.712a.572.572 0 0 1-.528-.304l-3.904-5.92V11.6a.426.426 0 0 1-.112.288.39.39 0 0 1-.288.112h-1.92Zm15.724.16c-1.536 0-2.736-.373-3.6-1.12-.864-.757-1.322-1.83-1.376-3.216-.01-.31-.016-.8-.016-1.472 0-.672.006-1.163.016-1.472.054-1.355.518-2.4 1.392-3.136C61.202 1.008 62.396.64 63.9.64c1.014 0 1.894.165 2.64.496.758.33 1.334.752 1.728 1.264.406.512.619 1.04.64 1.584a.303.303 0 0 1-.112.24.326.326 0 0 1-.24.096H66.22a.576.576 0 0 1-.256-.048.372.372 0 0 1-.16-.176 2.04 2.04 0 0 0-.656-.8c-.298-.235-.714-.352-1.248-.352-1.27 0-1.936.672-2 2.016-.01.299-.016.763-.016 1.392 0 .619.006 1.083.016 1.392.064 1.408.747 2.112 2.048 2.112.63 0 1.13-.16 1.504-.48.384-.33.576-.832.576-1.504v-.304h-1.504a.39.39 0 0 1-.288-.112.446.446 0 0 1-.112-.304V5.968a.39.39 0 0 1 .112-.288.365.365 0 0 1 .288-.128h4.032c.118 0 .214.043.288.128a.39.39 0 0 1 .112.288v1.824c0 .907-.208 1.69-.624 2.352-.416.65-1.008 1.152-1.776 1.504-.757.341-1.642.512-2.656.512Zm6.002-.16a.362.362 0 0 1-.24-.096.363.363 0 0 1-.096-.24c0-.064.005-.112.016-.144l3.76-10.272a.581.581 0 0 1 .208-.32.645.645 0 0 1 .416-.128h2.368c.17 0 .31.043.416.128a.582.582 0 0 1 .208.32l3.744 10.272.032.144a.337.337 0 0 1-.112.24.326.326 0 0 1-.24.096h-1.968c-.256 0-.427-.112-.512-.336l-.624-1.632h-4.272l-.608 1.632c-.085.224-.261.336-.528.336h-1.968Zm6.736-4.272L75.15 3.504l-1.488 4.224h2.976ZM82.395 12a.426.426 0 0 1-.288-.112.426.426 0 0 1-.112-.288V1.2a.39.39 0 0 1 .112-.288.426.426 0 0 1 .288-.112h1.696c.267 0 .448.101.544.304l3.904 6.144V1.2a.39.39 0 0 1 .112-.288.426.426 0 0 1 .288-.112h1.92a.39.39 0 0 1 .288.112.39.39 0 0 1 .112.288v10.384a.446.446 0 0 1-.112.304.39.39 0 0 1-.288.112h-1.712a.572.572 0 0 1-.528-.304l-3.904-5.92V11.6a.426.426 0 0 1-.112.288.39.39 0 0 1-.288.112h-1.92Zm11.5 0a.426.426 0 0 1-.288-.112.426.426 0 0 1-.112-.288V1.2a.39.39 0 0 1 .112-.288.426.426 0 0 1 .288-.112h2.112a.39.39 0 0 1 .288.112.39.39 0 0 1 .112.288v8.384h4.848c.117 0 .213.043.288.128.075.075.112.17.112.288v1.6a.424.424 0 0 1-.112.288.39.39 0 0 1-.288.112h-7.36Zm9.547 0a.425.425 0 0 1-.288-.112.424.424 0 0 1-.112-.288V1.2c0-.117.037-.213.112-.288a.425.425 0 0 1 .288-.112h2.144a.39.39 0 0 1 .288.112c.085.075.128.17.128.288v10.4a.366.366 0 0 1-.128.288.39.39 0 0 1-.288.112h-2.144Zm5.187 0a.428.428 0 0 1-.288-.112.43.43 0 0 1-.112-.288V1.2c0-.117.038-.213.112-.288a.428.428 0 0 1 .288-.112h2.016c.118 0 .214.037.288.112.075.075.112.17.112.288v3.552l2.96-3.648c.128-.203.336-.304.624-.304h2.304c.096 0 .176.037.24.112a.307.307 0 0 1 .096.224.366.366 0 0 1-.048.192l-3.84 4.832 4.128 5.312c.043.043.064.107.064.192a.363.363 0 0 1-.096.24.326.326 0 0 1-.24.096h-2.384a.789.789 0 0 1-.64-.32l-3.168-3.952V11.6a.389.389 0 0 1-.112.288.388.388 0 0 1-.288.112h-2.016Zm10.61 0a.425.425 0 0 1-.288-.112.424.424 0 0 1-.112-.288V1.2c0-.117.037-.213.112-.288a.425.425 0 0 1 .288-.112h2.112a.39.39 0 0 1 .288.112c.074.075.112.17.112.288v8.384h4.848c.117 0 .213.043.288.128.074.075.112.17.112.288v1.6a.43.43 0 0 1-.112.288.39.39 0 0 1-.288.112h-7.36Zm8.507 0a.36.36 0 0 1-.24-.096.363.363 0 0 1-.096-.24c0-.064.005-.112.016-.144l3.76-10.272a.58.58 0 0 1 .208-.32.644.644 0 0 1 .416-.128h2.368c.17 0 .309.043.416.128a.585.585 0 0 1 .208.32l3.744 10.272.032.144a.34.34 0 0 1-.112.24.326.326 0 0 1-.24.096h-1.968c-.256 0-.427-.112-.512-.336l-.624-1.632h-4.272l-.608 1.632c-.086.224-.262.336-.528.336h-1.968Zm6.736-4.272-1.488-4.224-1.488 4.224h2.976ZM140.239 12a.425.425 0 0 1-.288-.112.424.424 0 0 1-.112-.288V1.2c0-.117.037-.213.112-.288a.425.425 0 0 1 .288-.112h4.352c1.397 0 2.485.32 3.264.96.789.63 1.184 1.525 1.184 2.688 0 .747-.176 1.381-.528 1.904a3.376 3.376 0 0 1-1.456 1.2l2.192 3.936a.398.398 0 0 1 .048.176.34.34 0 0 1-.112.24.308.308 0 0 1-.224.096h-2.128c-.31 0-.528-.144-.656-.432l-1.824-3.52h-1.632V11.6a.366.366 0 0 1-.128.288.39.39 0 0 1-.288.112h-2.064Zm4.32-6.224c.49 0 .864-.117 1.12-.352.256-.245.384-.581.384-1.008 0-.427-.128-.763-.384-1.008-.246-.256-.619-.384-1.12-.384h-1.84v2.752h1.84ZM150.853 12a.448.448 0 0 1-.304-.112.393.393 0 0 1-.112-.288v-1.136c0-.32.134-.581.4-.784l1.664-1.632a80.973 80.973 0 0 0 2.208-1.744c.502-.416.88-.795 1.136-1.136.256-.341.384-.667.384-.976 0-.843-.416-1.264-1.248-1.264-.437 0-.773.133-1.008.4a1.952 1.952 0 0 0-.464.976c-.064.245-.245.368-.544.368h-2a.326.326 0 0 1-.336-.336 3.704 3.704 0 0 1 .56-1.872c.363-.576.87-1.03 1.52-1.36.662-.341 1.419-.512 2.272-.512.896 0 1.664.144 2.304.432.64.288 1.126.693 1.456 1.216.331.523.496 1.13.496 1.824 0 .747-.234 1.43-.704 2.048-.458.608-1.162 1.27-2.112 1.984l-1.472 1.488h4.112c.118 0 .214.037.288.112.086.075.128.17.128.288V11.6a.363.363 0 0 1-.128.288.388.388 0 0 1-.288.112h-8.208Zm15.48 0a.428.428 0 0 1-.288-.112.43.43 0 0 1-.112-.288V9.792h-4.976a.39.39 0 0 1-.288-.112.392.392 0 0 1-.112-.288v-1.52c0-.16.059-.325.176-.496l4.656-6.304a.73.73 0 0 1 .592-.272h2.336c.118 0 .214.037.288.112.075.075.112.17.112.288v6.208h1.408c.128 0 .23.043.304.128a.369.369 0 0 1 .112.272v1.584a.389.389 0 0 1-.112.288.388.388 0 0 1-.288.112h-1.424V11.6a.424.424 0 0 1-.112.288.388.388 0 0 1-.288.112h-1.984Zm-.336-4.48V3.744l-2.688 3.776h2.688Z"/></svg>
